X: 622
T: Across The Fence
R: hornpipe
M: 4/4
K: Gmajor
|:dc|B3G c3A|dgge dBGB|c3d BGDB|BAAG AF F2|
GDBD GABc|dgge dBGB|dG (3Bcd edcF|AGGF G2:|
|:AG|FDAD (3.F.G.A DA|BG G2 DGBd|ec c2 dB B2|BAAG (3FED BA|
DB B2 Dc c2|d>cd>e dBGB|dG (3Bcd edcF|AGGF G2:|
|:Bc|dggf g2bg|g2bg agfg|eaag a2ag|fed^c d2d=c|
BdBG AcAF|GDBD GABc|dG (3Bcd edcF|AGGF G2:|

